Papirus/32x32/apps/nym-vpn-app.svg

<svg width="32" height="32" version="1.1" xmlns="http://www.w3.org/2000/svg">
 <rect x="2" y="3" width="28" height="28" ry="5.397244" style="opacity:.2"/>
 <rect x="2" y="2" width="28" height="28" ry="5.397244" style="fill:#45cf7b"/>
 <path d="m7.74235 7c-0.96175 0-1.74235 0.79395-1.74235 1.7733v17.2266h5v-16.88335c0-0.29585 0.2761-0.35185 0.352-0.06625l4.006 15.0783c0.2933 1.1046 1.389 1.8714 2.5127 1.8714h6.3882c0.9618-1e-4 1.7411-0.794 1.7411-1.7734v-17.2266h-5v17.2571c0 0.2964-0.2767 0.3527-0.3517 0.0663l-4.0503-15.4441c-0.2908-1.1085-1.389-1.8793-2.5157-1.8793z" style="opacity:.2;stop-color:#000000"/>
 <path d="m7.74235 5.99995c-0.96175 0-1.74235 0.79395-1.74235 1.7733v17.22665h5v-16.8834c0-0.29585 0.2761-0.35185 0.352-0.06625l4.006 15.07825c0.2933 1.1047 1.389 1.8714 2.5127 1.8714h6.3882c0.9618 0 1.7411-0.794 1.7411-1.7733v-17.22665h-5v17.25715c0 0.2964-0.2767 0.3527-0.3517 0.0663l-4.0503-15.4441c-0.2908-1.10855-1.3889-1.87935-2.5156-1.87935z" style="fill:#454545;stop-color:#000000"/>
 <path d="m7.74219 6c-0.96175 0-1.74219 0.79409-1.74219 1.77344v1c0-0.97935 0.78044-1.77344 1.74219-1.77344h6.33981c1.1267 0 2.2249 0.77041 2.5157 1.87891l4.0507 15.44529c0.0751 0.2865 0.3516 0.23 0.3516-0.0664v-1c0 0.2964-0.2765 0.3529-0.3516 0.0664l-4.0507-15.44529c-0.2908-1.10855-1.389-1.87891-2.5157-1.87891h-6.33981zm13.25781 0v1h5v-1h-5z" style="fill:#ffffff;opacity:.1;stop-color:#000000"/>
 <path d="M 7.39648 2 C 4.40641 2 2 4.40641 2 7.39648 L 2 8.39648 C 2 5.40641 4.40641 3 7.39648 3 L 24.6035 3 C 27.5936 3 30 5.40641 30 8.39648 L 30 7.39648 C 30 4.40641 27.5936 2 24.6035 2 L 7.39648 2 Z" style="fill:#ffffff;opacity:.2"/>
</svg>

<svg width="32" height="32" version="1.1" xmlns="http://www.w3.org/2000/svg">
 <rect x="2" y="3" width="28" height="28" ry="5.397244" style="opacity:.2"/>
 <rect x="2" y="2" width="28" height="28" ry="5.397244" style="fill:#45cf7b"/>
 <path d="M 7.74235,7 C 6.7806,7 6,7.79395 6,8.7733 v 17.2266 h 5 V 9.11655 C 11,8.8207 11.2761,8.7647 11.352,9.0503 l 4.006,15.0783 C 15.6513,25.2332 16.747,26 17.8707,26 h 6.3882 C 25.2207,25.9999 26,25.206 26,24.2266 V 7 h -5 v 17.2571 c 0,0.2964 -0.2767,0.3527 -0.3517,0.0663 L 16.598,8.8793 C 16.3072,7.7708 15.209,7 14.0823,7 Z" style="opacity:.2"/>
 <path d="m7.74235 5.99995c-0.96175 0-1.74235 0.79395-1.74235 1.7733v17.22665h5v-16.8834c0-0.29585 0.2761-0.35185 0.352-0.06625l4.006 15.07825c0.2933 1.1047 1.389 1.8714 2.5127 1.8714h6.3882c0.9618 0 1.7411-0.794 1.7411-1.7733v-17.22665h-5v17.25715c0 0.2964-0.2767 0.3527-0.3517 0.0663l-4.0503-15.4441c-0.2908-1.10855-1.3889-1.87935-2.5156-1.87935z" style="fill:#454545"/>
 <path d="m7.74219 6c-0.96175 0-1.74219 0.79409-1.74219 1.77344v1c0-0.97935 0.78044-1.77344 1.74219-1.77344h6.33981c1.1267 0 2.2249 0.77041 2.5157 1.87891l4.0507 15.44529c0.0751 0.2865 0.3516 0.23 0.3516-0.0664v-1c0 0.2964-0.2765 0.3529-0.3516 0.0664l-4.0507-15.44529c-0.2908-1.10855-1.389-1.87891-2.5157-1.87891h-6.33981zm13.25781 0v1h5v-1h-5z" style="fill:#ffffff;opacity:.1"/>
 <path d="M 7.39648,2 C 4.40641,2 2,4.40641 2,7.39648 v 1 C 2,5.40641 4.40641,3 7.39648,3 H 24.6035 C 27.5936,3 30,5.40641 30,8.39648 v -1 C 30,4.40641 27.5936,2 24.6035,2 Z" style="fill:#ffffff;opacity:.2"/>
</svg>
